images/icons/favicon.svg

<svg width="96" height="75" viewBox="0 0 96 75" fill="none" xmlns="http://www.w3.org/2000/svg">
<path d="M44.0565 73.5247C40.5214 69.3744 34.6207 64.935 28.9061 62.1266C23.1359 59.2903 17.6548 57.7148 11.432 57.1057C10.2053 56.9867 9.18813 56.8759 9.17176 56.8599C9.15574 56.8599 9.18744 44.0499 9.25118 28.4288L9.35583 0.0277463L10.4885 0.1388C17.4452 0.828845 25.2094 3.45731 31.0842 7.12089C36.1471 10.2776 41.3752 15.1523 44.7085 19.8231L45.5474 20.9986V47.9766C45.5474 62.8141 45.4837 74.9516 45.4077 74.9492C45.3282 74.9468 44.7211 74.3053 44.0565 73.5247ZM49.8191 20.8177L51.4392 18.6532C53.5073 15.8899 57.6675 11.7267 60.4186 9.66847C67.7721 4.16481 75.749 1.05487 84.9066 0.118962L86.0683 0V56.8821L84.7209 57.0092C71.9691 58.1957 60.9142 63.4566 52.2675 72.4524L49.8191 75V20.8177ZM57.7197 73.1583C62.7246 68.4629 69.3499 64.7318 76.0053 62.8595C79.4883 61.8798 84.017 61.196 87.0237 61.196C88.5999 61.196 89.4742 60.8552 89.9674 60.0453C90.3386 59.4344 90.3427 59.172 90.3434 36.1262L90.3441 12.822L91.0412 12.9489C91.4243 13.0282 92.512 13.3296 93.4579 13.631L95.1772 14.1783V43.2622C95.1772 59.2586 95.1138 72.346 95.0354 72.346C94.956 72.346 93.8069 72.1003 92.4793 71.799C87.233 70.6172 82.9129 70.2109 77.2389 70.3639C70.3565 70.5544 65.0077 71.514 58.6495 73.7112L56.2328 74.5463L57.7197 73.1583ZM36.5278 73.6103C33.8871 72.6651 29.5265 71.5505 26.5824 71.0698C22.5797 70.4195 19.818 70.2467 14.9119 70.3561C10.0376 70.4594 7.08908 70.8002 3.06686 71.7131C1.94217 71.967 0.791928 72.2288 0.510784 72.2843L0 72.3955L0.00180481 14.0712L2.18528 13.4367C3.38607 13.0877 4.47329 12.7625 4.60112 12.7229C4.78587 12.6436 4.83359 17.3945 4.83359 36.0011C4.83359 61.4268 4.77803 60.0095 5.86266 60.7226C6.24033 60.9683 7.02466 61.0795 9.26482 61.2144C18.1675 61.722 26.6151 64.7114 33.5115 69.7977C34.9987 70.8946 38.5679 73.9072 38.7724 74.2378C38.9152 74.4679 38.8198 74.4441 36.5281 73.6192L36.5278 73.6103Z" fill="url(#paint0_radial_505_660)"/>
<path d="M51.6969 53.1387C51.4004 52.4641 50.7275 51.6328 49.1735 52.3158L47.8043 52.9178L46.4994 49.9496C45.7134 48.1621 43.7626 48.0298 42.7721 48.975C42.0553 49.6592 41.729 50.7503 42.2008 51.823L46.8284 62.4163C45.7015 61.5625 43.5486 61.572 42.585 62.5646L42.6102 62.5264C41.5866 63.5804 41.758 65.0744 43.311 66.3795L51.5988 72.9023L63.4714 67.683L63.5362 66.6485C63.7042 63.9567 63.2256 61.2639 62.1403 58.795L61.2415 56.7508C61.1948 56.6448 61.144 56.5412 61.0888 56.4403C60.4619 55.2947 59.0593 54.8222 57.8615 55.3431L56.9694 55.731L55.9611 53.4373C55.5197 52.4334 54.3434 51.977 53.3426 52.4256L51.6969 53.1387Z" fill="url(#paint1_linear_505_660)"/>
<path d="M62.6874 58.5547L61.7886 56.5105C61.7354 56.3892 61.6764 56.2692 61.613 56.1536C61.2384 55.4682 60.6231 54.9524 59.8811 54.7009C59.1414 54.45 58.3397 54.4834 57.6232 54.7949L57.2769 54.9456L56.8344 53.939L56.5082 53.197C56.2294 52.5633 55.7202 52.0769 55.0735 51.8281C54.43 51.5803 53.7302 51.5983 53.102 51.8785L51.9529 52.3762C51.7406 52.0738 51.4822 51.8431 51.1812 51.6873C50.5527 51.3621 49.7963 51.3894 48.9329 51.7688L48.1107 52.1304L47.0465 49.7093C46.6133 48.7235 45.8089 48.0472 44.8401 47.8536C43.9297 47.6716 43.0022 47.9293 42.3596 48.5425C41.395 49.4632 41.1179 50.845 41.653 52.0622L45.6848 61.2915C45.3473 61.223 44.9915 61.1919 44.6305 61.2005C43.6928 61.2236 42.8498 61.5219 42.285 62.0247C42.2482 62.0489 42.2134 62.0772 42.1814 62.1102C41.6138 62.6945 41.3343 63.4011 41.3725 64.1541C41.4199 65.0948 41.9574 66.0227 42.9265 66.837C42.9313 66.8411 42.9364 66.8452 42.9415 66.8493L51.2293 73.372C51.3363 73.4566 51.4669 73.4999 51.5988 73.4999C51.6802 73.4999 51.762 73.4835 51.8391 73.4494L63.712 68.2301C63.9169 68.1401 64.0539 67.9434 64.0679 67.7202L64.1327 66.6856C64.3058 63.9114 63.8061 61.0996 62.6874 58.5547ZM57.8458 59.2095C57.9443 59.4334 58.1631 59.5667 58.3932 59.5667C58.4737 59.5667 58.5551 59.5503 58.6332 59.5163C58.9355 59.3833 59.0729 59.0305 58.9399 58.7285L57.7578 56.0398L58.0997 55.8912C59.0241 55.4889 60.0839 55.8486 60.5645 56.7273C60.6116 56.8129 60.6552 56.9015 60.6944 56.9911L61.5932 59.0356C62.6356 61.4067 63.1012 64.0262 62.9397 66.6113L62.8977 67.2825L51.6867 72.2111L43.6883 65.916C42.9947 65.3307 42.5962 64.6838 42.5662 64.0934C42.5468 63.7109 42.678 63.3547 42.9562 63.033C42.9763 63.0169 42.9954 62.9995 43.0138 62.9808C43.7292 62.2438 45.5133 62.1931 46.4449 62.8762L48.5034 64.8535C48.6193 64.9646 48.7686 65.0198 48.9175 65.0198C49.0743 65.0198 49.2311 64.9585 49.3484 64.8365C49.5771 64.5982 49.5696 64.2198 49.3313 63.9915L47.3284 62.0676L42.7479 51.5823C42.3467 50.6691 42.7104 49.8599 43.1849 49.4073C43.5407 49.0678 44.0854 48.9215 44.6063 49.0255C45.196 49.1434 45.6742 49.5569 45.9524 50.1902L49.4223 58.0829C49.5205 58.3069 49.7397 58.4401 49.9698 58.4401C50.0499 58.4401 50.1317 58.4238 50.2097 58.3894C50.5121 58.2564 50.6491 57.904 50.5165 57.602L48.592 53.2242L49.4142 52.8629C49.9306 52.6363 50.3403 52.5977 50.6321 52.7487C50.839 52.8558 51.0132 53.0678 51.1498 53.379L53.1961 58.0338C53.2946 58.2578 53.5137 58.3911 53.7435 58.3911C53.8239 58.3911 53.9054 58.3747 53.9838 58.3403C54.2858 58.2073 54.4232 57.8549 54.2902 57.5525L52.4857 53.4478L53.5805 52.9737C53.5829 52.9727 53.5853 52.9717 53.5877 52.9706C53.9238 52.82 54.2991 52.8101 54.644 52.943C54.9914 53.077 55.2648 53.3378 55.4144 53.6776L57.8458 59.2095Z" fill="white"/>
<path d="M60.2424 67.8562C60.0123 67.8562 59.7931 67.7226 59.695 67.4986C59.5624 67.1963 59.6997 66.8438 60.0021 66.7112L60.5918 66.4525C60.8941 66.3199 61.2466 66.4576 61.3788 66.76C61.5114 67.0623 61.3741 67.4148 61.0717 67.5473L60.482 67.8057C60.404 67.8402 60.3225 67.8562 60.2424 67.8562Z" fill="white"/>
<path d="M52.1581 71.4155C51.928 71.4155 51.7089 71.2819 51.6104 71.0576C51.4778 70.7556 51.6155 70.4031 51.9178 70.2705L58.2136 67.5088C58.5163 67.3766 58.8684 67.5139 59.001 67.8163C59.1336 68.1186 58.9962 68.4711 58.6939 68.6033L52.3978 71.365C52.3197 71.3991 52.2382 71.4155 52.1581 71.4155Z" fill="white"/>
<path d="M43.2752 46.678C42.9977 46.678 42.7489 46.4833 42.6906 46.2011L42.2812 44.2186C42.2144 43.8951 42.4224 43.5792 42.7455 43.5123C43.0686 43.4459 43.385 43.6535 43.4518 43.9769L43.8611 45.9594C43.928 46.2826 43.72 46.5985 43.3966 46.6653C43.356 46.6739 43.3154 46.678 43.2752 46.678Z" fill="white"/>
<path d="M37.0435 46.5866C36.9362 46.5866 36.8274 46.5576 36.7296 46.497L36.3168 46.2413C36.0363 46.0675 35.9494 45.6993 36.1232 45.4185C36.297 45.1379 36.6655 45.0513 36.946 45.2252L37.3588 45.4808C37.6394 45.6547 37.7259 46.0228 37.5521 46.3037C37.4393 46.486 37.2436 46.5866 37.0435 46.5866Z" fill="white"/>
<path d="M40.3155 48.7542C40.2027 48.7542 40.0888 48.7225 39.9876 48.656L38.7127 47.8175C38.437 47.6361 38.3603 47.2656 38.542 46.9898C38.7233 46.7141 39.0938 46.6374 39.3696 46.8187L40.6444 47.6573C40.9202 47.8386 40.9965 48.2091 40.8152 48.4849C40.7003 48.6594 40.5098 48.7542 40.3155 48.7542Z" fill="white"/>
<path d="M37.7082 52.7249C37.4308 52.7249 37.1819 52.5306 37.1236 52.248C37.0568 51.9249 37.2648 51.6086 37.5879 51.5421L39.5704 51.1327C39.8938 51.0659 40.2098 51.2738 40.2766 51.597C40.3434 51.9204 40.1355 52.2364 39.812 52.3032L37.8296 52.7126C37.789 52.7208 37.7481 52.7249 37.7082 52.7249Z" fill="white"/>
<path d="M40.3383 57.4625C40.2258 57.4625 40.1117 57.4305 40.0104 57.364C39.735 57.1827 39.6583 56.8122 39.8396 56.5364L40.9522 54.8451C41.1332 54.5693 41.5041 54.4926 41.7798 54.6743C42.0556 54.8556 42.132 55.2261 41.9506 55.5019L40.8384 57.1933C40.7235 57.3678 40.533 57.4625 40.3383 57.4625Z" fill="white"/>
<path d="M48.9131 50.2625C48.6353 50.2625 48.3868 50.0682 48.3282 49.7856C48.2617 49.4625 48.4696 49.1462 48.7928 49.0793L50.1143 48.8066C50.4378 48.7398 50.7538 48.9478 50.8206 49.2709C50.8874 49.594 50.6795 49.9104 50.3563 49.9772L49.0344 50.2499C48.9935 50.2584 48.953 50.2625 48.9131 50.2625Z" fill="white"/>
<path d="M52.6302 49.4949C52.3528 49.4949 52.1039 49.3006 52.0456 49.018C51.9788 48.6948 52.1868 48.3785 52.5099 48.3121L52.923 48.2265C53.2465 48.16 53.5625 48.368 53.6293 48.6911C53.6961 49.0142 53.4882 49.3306 53.1647 49.397L52.7516 49.4826C52.711 49.4908 52.6704 49.4949 52.6302 49.4949Z" fill="white"/>
<path d="M46.8366 47.3024C46.7237 47.3024 46.6099 47.2707 46.5086 47.2039C46.2329 47.0226 46.1565 46.652 46.3379 46.3763L47.4501 44.6849C47.6314 44.4095 48.002 44.3328 48.2781 44.5141C48.5535 44.6955 48.6302 45.066 48.4488 45.3418L47.3366 47.0331C47.2217 47.2077 47.0308 47.3024 46.8366 47.3024Z" fill="white"/>
<defs>
<radialGradient id="paint0_radial_505_660" cx="0" cy="0" r="1" gradientUnits="userSpaceOnUse" gradientTransform="translate(47.5885 37.4998) rotate(90) scale(37.5002 47.5887)">
<stop stop-color="#02C39A"/>
<stop offset="0.489583" stop-color="#00A896"/>
<stop offset="1" stop-color="#028090"/>
</radialGradient>
<linearGradient id="paint1_linear_505_660" x1="35.8347" y1="-14.9796" x2="35.8347" y2="76.8286" gradientUnits="userSpaceOnUse">
<stop stop-color="#046C8E"/>
<stop offset="1" stop-color="#02C19A"/>
</linearGradient>
</defs>
</svg>

<svg width="96" height="75" fill="none" xmlns="http://www.w3.org/2000/svg"><path d="M44.056 73.525c-3.535-4.15-9.435-8.59-15.15-11.398-5.77-2.837-11.251-4.412-17.474-5.021-1.227-.12-2.244-.23-2.26-.246-.016 0 .015-12.81.08-28.431L9.355.028l1.133.11c6.956.69 14.72 3.32 20.595 6.983 5.063 3.157 10.291 8.031 13.625 12.702L45.547 21v26.978c0 14.837-.063 26.975-.14 26.972-.079-.002-.686-.644-1.35-1.424Zm5.763-52.707 1.62-2.165c2.068-2.763 6.228-6.926 8.98-8.985C67.772 4.165 75.749 1.055 84.907.12L86.068 0v56.882l-1.347.127c-12.752 1.187-23.807 6.448-32.454 15.443L49.82 75V20.818Zm7.9 52.34c5.006-4.695 11.63-8.426 18.286-10.299 3.483-.98 8.012-1.663 11.019-1.663 1.576 0 2.45-.34 2.943-1.15.372-.612.376-.874.376-23.92l.001-23.304.697.127c.383.08 1.471.38 2.417.682l1.72.547v29.084c0 15.997-.064 29.084-.143 29.084-.079 0-1.228-.246-2.556-.547-5.246-1.182-9.566-1.588-15.24-1.435-6.883.19-12.231 1.15-18.59 3.347l-2.416.835 1.487-1.388Zm-21.191.452c-2.64-.945-7.002-2.06-9.946-2.54-4.002-.65-6.764-.823-11.67-.714-4.874.103-7.823.444-11.845 1.357-1.125.254-2.275.516-2.556.571L0 72.395l.002-58.324 2.183-.634c1.201-.35 2.288-.675 2.416-.714.185-.08.233 4.671.233 23.278 0 25.426-.056 24.009 1.029 24.722.377.245 1.162.357 3.402.491 8.902.508 17.35 3.497 24.246 8.584 1.488 1.097 5.057 4.11 5.261 4.44.143.23.048.206-2.244-.619v-.009Z" fill="url(#a)"/><path d="M51.697 53.139c-.297-.675-.97-1.506-2.524-.823l-1.369.602L46.5 49.95c-.786-1.788-2.736-1.92-3.727-.975-.717.684-1.043 1.775-.571 2.848l4.627 10.593c-1.127-.853-3.28-.844-4.243.149l.025-.039c-1.023 1.054-.852 2.548.701 3.853l8.288 6.523 11.872-5.219.065-1.035a16.9 16.9 0 0 0-1.396-7.853l-.898-2.044a4.042 4.042 0 0 0-.153-.31 2.529 2.529 0 0 0-3.227-1.098l-.893.388-1.008-2.294a1.98 1.98 0 0 0-2.618-1.011l-1.646.713Z" fill="url(#b)"/><path d="m62.687 58.555-.898-2.044a4.522 4.522 0 0 0-.176-.357 3.13 3.13 0 0 0-3.99-1.359l-.346.15-.443-1.006-.326-.742a2.562 2.562 0 0 0-1.434-1.369 2.553 2.553 0 0 0-1.972.05l-1.15.498a2.148 2.148 0 0 0-.77-.689c-.63-.325-1.386-.298-2.25.082l-.821.361-1.064-2.42c-.434-.986-1.238-1.663-2.207-1.856-.91-.182-1.838.075-2.48.688a3.097 3.097 0 0 0-.707 3.52l4.032 9.23a4.749 4.749 0 0 0-1.055-.092c-.937.024-1.78.322-2.345.825a.613.613 0 0 0-.104.085c-.567.584-.847 1.291-.808 2.044.047.94.584 1.869 1.553 2.683a.66.66 0 0 0 .015.012l8.288 6.523a.595.595 0 0 0 .61.077l11.873-5.219a.597.597 0 0 0 .356-.51l.065-1.034a17.573 17.573 0 0 0-1.446-8.131Zm-4.841.654a.598.598 0 1 0 1.094-.48l-1.182-2.69.342-.148a1.92 1.92 0 0 1 2.465.836c.047.086.09.175.13.264l.898 2.045a16.369 16.369 0 0 1 1.347 7.575l-.042.671-11.211 4.93-7.999-6.296c-.693-.585-1.092-1.232-1.122-1.823-.02-.382.112-.738.39-1.06a.657.657 0 0 0 .058-.052c.715-.737 2.5-.788 3.43-.105l2.06 1.977a.597.597 0 0 0 .827-.861l-2.003-1.924-4.58-10.486c-.401-.913-.038-1.722.437-2.175.356-.34.9-.485 1.421-.381.59.117 1.068.53 1.346 1.164l3.47 7.893a.597.597 0 1 0 1.095-.481l-1.925-4.378.822-.361c.517-.227.926-.265 1.218-.114.207.107.381.319.518.63l2.046 4.655a.598.598 0 1 0 1.094-.481l-1.804-4.105 1.095-.474a1.365 1.365 0 0 1 1.063-.03c.347.133.62.394.77.734l2.432 5.532Z" fill="#fff"/><path d="M60.242 67.856a.597.597 0 0 1-.24-1.145l.59-.258a.597.597 0 1 1 .48 1.094l-.59.259a.59.59 0 0 1-.24.05ZM52.158 71.415a.598.598 0 0 1-.24-1.145l6.296-2.761a.598.598 0 0 1 .48 1.094l-6.296 2.762a.598.598 0 0 1-.24.05ZM43.275 46.678a.598.598 0 0 1-.584-.477l-.41-1.982a.598.598 0 1 1 1.17-.242l.41 1.982a.597.597 0 0 1-.586.719ZM37.044 46.587a.595.595 0 0 1-.314-.09l-.413-.256a.598.598 0 0 1 .629-1.016l.413.256a.598.598 0 0 1-.316 1.106ZM40.316 48.754a.595.595 0 0 1-.328-.098l-1.275-.838a.597.597 0 1 1 .657-1l1.274.84a.597.597 0 0 1-.328 1.096ZM37.708 52.725a.598.598 0 0 1-.12-1.183l1.982-.41a.598.598 0 1 1 .242 1.171l-1.982.41a.615.615 0 0 1-.122.012ZM40.338 57.462a.596.596 0 0 1-.498-.926l1.112-1.69a.597.597 0 1 1 .999.656l-1.113 1.691a.597.597 0 0 1-.5.27ZM48.913 50.263a.598.598 0 0 1-.12-1.184l1.321-.272a.598.598 0 1 1 .242 1.17l-1.322.273a.595.595 0 0 1-.12.013ZM52.63 49.495a.598.598 0 0 1-.12-1.183l.413-.085a.598.598 0 0 1 .242 1.17l-.413.086a.613.613 0 0 1-.122.012ZM46.837 47.302a.597.597 0 0 1-.499-.926l1.112-1.691a.598.598 0 0 1 .999.657l-1.112 1.691a.598.598 0 0 1-.5.27Z" fill="#fff"/><defs><radialGradient id="a" cx="0" cy="0" r="1" gradientUnits="userSpaceOnUse" gradientTransform="matrix(0 37.5002 -47.5887 0 47.589 37.5)"><stop stop-color="#02C39A"/><stop offset=".49" stop-color="#00A896"/><stop offset="1" stop-color="#028090"/></radialGradient><linearGradient id="b" x1="35.835" y1="-14.98" x2="35.835" y2="76.829" gradientUnits="userSpaceOnUse"><stop stop-color="#046C8E"/><stop offset="1" stop-color="#02C19A"/></linearGradient></defs></svg>
